Tumbleweed/apple-touch-icon.svg

<?xml version="1.0" encoding="UTF-8" standalone="no"?>
<svg
   width="128"
   height="128"
   version="1.1"
   viewBox="0 0 128 128"
   id="svg4"
   xmlns="http://www.w3.org/2000/svg"
   xmlns:svg="http://www.w3.org/2000/svg"
   xmlns:rdf="http://www.w3.org/1999/02/22-rdf-syntax-ns#"
   xmlns:cc="http://creativecommons.org/ns#"
   xmlns:dc="http://purl.org/dc/elements/1.1/">
  <metadata
     id="metadata10">
    <rdf:RDF>
      <cc:Work
         rdf:about="">
        <dc:format>image/svg+xml</dc:format>
        <dc:type
           rdf:resource="http://purl.org/dc/dcmitype/StillImage" />
        <dc:title />
      </cc:Work>
    </rdf:RDF>
  </metadata>
  <defs
     id="defs8" />
  <path
     style="fill:#ffffff;fill-opacity:1;stroke:#35b9ab;stroke-width:1.98451;stroke-linejoin:miter;stroke-miterlimit:4;stroke-dasharray:none;stroke-opacity:1"
     id="rect831-7"
     width="126.0155"
     height="126.0155"
     x="0.99225497"
     y="0.99225497"
     d="M 10.992255,0.99225497 H 117.00776 a 10,10 45 0 1 10,10.00000003 V 117.00776 a 10,10 135 0 1 -10,10 H 10.992255 a 10,10 45 0 1 -10.00000003,-10 V 10.992255 A 10,10 135 0 1 10.992255,0.99225497 Z" />
  <path
     id="path12"
     style="color:#000000;fill:#35b9ab;fill-rule:evenodd;stroke-width:0.874648;stroke-linecap:square;-inkscape-stroke:none"
     d="M 37.672859,8.0126865 C 21.304037,7.9734385 7.9734491,21.304015 8.0127033,37.672843 8.05194,54.041669 21.413464,67.401145 37.782235,67.440421 l 7.359374,0.01758 -0.01562,-0.0019 c 0.0052,1.2e-5 0.0066,-1.2e-5 0.01172,0 h 0.0019 c 6.688301,0.01521 12.52504,0.02866 15.369142,0.03515 0.0085,3.902924 0.03572,16.44918 0.05078,22.726562 0.03927,16.368787 13.398747,29.730317 29.767601,29.769497 16.368818,0.0392 29.699428,-13.29132 29.660168,-29.660149 -0.0392,-16.368831 -13.40072,-29.728349 -29.769544,-29.767578 -1.918605,-0.0046 -3.950398,-0.0088 -6.945312,-0.01562 -6.803227,-0.01549 -12.895755,-0.02881 -15.779297,-0.03516 -0.0085,-3.902927 -0.03573,-16.449194 -0.05078,-22.726563 C 67.403117,21.41341 54.041663,8.0519705 37.672835,8.0127085 Z m -0.01758,7.0019535 c 0.964718,0.0023 1.91286,0.0715 2.845703,0.189453 V 40.416984 H 15.192391 C 15.081249,39.511202 15.016901,38.590933 15.014654,37.655265 14.984478,25.069454 25.069466,14.984462 37.655281,15.01464 Z m 9.847658,2.248046 c 7.643552,3.676218 12.915785,11.479164 12.937501,20.535158 0.01503,6.266714 0.04203,18.76489 0.05078,22.693359 -3.928655,-0.0087 -16.424768,-0.03573 -22.691406,-0.05078 -9.088635,-0.0218 -16.914084,-5.333275 -20.574215,-13.021486 h 30.27734 z m 20.00586,50.246094 c 3.929849,0.0087 16.427126,0.03573 22.693359,0.05078 9.209161,0.02209 17.117314,5.476483 20.712894,13.330079 H 80.762703 V 110.85839 C 72.976978,107.23555 67.581544,99.359937 67.559578,90.200188 c -0.01503,-6.266647 -0.04203,-18.76275 -0.05078,-22.691407 z m 20.253906,20.378907 h 25.083987 c 0.088,0.807173 0.13668,1.626598 0.13867,2.457032 0.0302,12.585801 -10.05483,22.670811 -22.640625,22.640621 -0.873674,-0.002 -1.734232,-0.059 -2.582032,-0.15625 z" />
</svg>

<?xml version="1.0" encoding="UTF-8"?>
<svg width="128" height="128" version="1.1" viewBox="0 0 128 128" xmlns="http://www.w3.org/2000/svg" xmlns:cc="http://creativecommons.org/ns#" xmlns:dc="http://purl.org/dc/elements/1.1/" xmlns:rdf="http://www.w3.org/1999/02/22-rdf-syntax-ns#">
 <metadata>
  <rdf:RDF>
   <cc:Work rdf:about="">
    <dc:format>image/svg+xml</dc:format>
    <dc:type rdf:resource="http://purl.org/dc/dcmitype/StillImage"/>
   </cc:Work>
  </rdf:RDF>
 </metadata>
 <path x="0.99225497" y="0.99225497" width="126.0155" height="126.0155" d="m10.992 0.99225h106.02a10 10 45 0 1 10 10v106.02a10 10 135 0 1-10 10h-106.02a10 10 45 0 1-10-10v-106.02a10 10 135 0 1 10-10z" fill="#fff" stroke="#35b9ab" stroke-width="1.9845"/>
 <path d="m37.673 8.0127c-16.369-0.039248-29.699 13.291-29.66 29.66 0.039237 16.369 13.401 29.728 29.77 29.768l7.3594 0.01758-0.01562-0.0019c0.0052 1.2e-5 0.0066-1.2e-5 0.01172 0h0.0019c6.6883 0.01521 12.525 0.02866 15.369 0.03515 0.0085 3.9029 0.03572 16.449 0.05078 22.727 0.03927 16.369 13.399 29.73 29.768 29.769 16.369 0.0392 29.699-13.291 29.66-29.66-0.0392-16.369-13.401-29.728-29.77-29.768-1.9186-0.0046-3.9504-0.0088-6.9453-0.01562-6.8032-0.01549-12.896-0.02881-15.779-0.03516-0.0085-3.9029-0.03573-16.449-0.05078-22.727-0.03925-16.369-13.401-29.73-29.77-29.77zm-0.01758 7.002c0.96472 0.0023 1.9129 0.0715 2.8457 0.18945v25.213h-25.309c-0.11114-0.90578-0.17549-1.8261-0.17774-2.7617-0.030176-12.586 10.055-22.671 22.641-22.641zm9.8477 2.248c7.6436 3.6762 12.916 11.479 12.938 20.535 0.01503 6.2667 0.04203 18.765 0.05078 22.693-3.9287-0.0087-16.425-0.03573-22.691-0.05078-9.0886-0.0218-16.914-5.3333-20.574-13.021h30.277zm20.006 50.246c3.9298 0.0087 16.427 0.03573 22.693 0.05078 9.2092 0.02209 17.117 5.4765 20.713 13.33h-30.152v29.969c-7.7857-3.6228-13.181-11.498-13.203-20.658-0.01503-6.2666-0.04203-18.763-0.05078-22.691zm20.254 20.379h25.084c0.088 0.80717 0.13668 1.6266 0.13867 2.457 0.0302 12.586-10.055 22.671-22.641 22.641-0.87367-2e-3 -1.7342-0.059-2.582-0.15625z" color="#000000" fill="#35b9ab" fill-rule="evenodd" stroke-linecap="square" stroke-width=".87465" style="-inkscape-stroke:none"/>
</svg>
